X:31
T:Launching the Boat
R:reel
Z:Transcribed by Dave Marshall
M:C|
K:D
|: defe dBAc | B~E3 BAFA | defe dBAF | ~E3F GABc |
defe dBAc | B~E3 BAFG | A2FA DAFA | EDCD EDD2 :|
|:fd(3ddd fdgd | fd(3ddd fagf | efgf ~g3f | efga bgeg |
f~d3 edBc | defd BAFG | A2FA DAFA | EDCD EDD2 :|
